X:24
%%pagewidth 1000pt
%%score 1 2
%%staffscale 1.0
T: Who's the fool now
M: 6/8
L: 1/8
K: A
V:1 clef-treble
V:2 clef-bass octave=-1
V:1
[CA]2[DB] [Ec]c[DB]|[CA]2[B,G] A3 & x3 C2[CF]|[DB]2[Ec] [Fd]d[Ec]|
w: Martin said to his man, fie, man, fie! Martin said to his man
V:2
A,6-|A,2E A2F|B,6-|
V:1
[DB]2[C^A] B3 & x3 D2[EG]|ced c>BA & [EA]3 [EA]2x|A>Bc/A/ BGE & ^D3 E3|
w: Who's the fool~now? Martin* said to his man; Fill the cup and I the can; 
V:2
B,2F B2E|A,3 C3|F,3 G,2=D|
V:1
A2E C>DE & E2x x2C|cdB A3 & E2[DG] C3|"^f"A2E C>DE|cdB A3 & E2[DG] C3||
w: Thou~hast well drunk-en, man, Who's the fool now? Thou~hast well drunk-en man, who's the fool now?
V:2
C3 A3|E3 A3| A2E C>DE|E2E, A,3||

